; generated by PrusaSlicer 2.6.1+win64 on 2023-09-29 at 04:59:02 UTC

; 

; external perimeters extrusion width = 0.42mm
; perimeters extrusion width = 0.44mm
; infill extrusion width = 0.44mm
; solid infill extrusion width = 0.44mm
; top infill extrusion width = 0.40mm
; support material extrusion width = 0.36mm
; first layer extrusion width = 0.42mm

M201 X500 Y500 Z100 E5000 ; sets maximum accelerations, mm/sec^2
M203 X500 Y500 Z10 E60 ; sets maximum feedrates, mm / sec
M204 S500 T1000 ; sets acceleration (S) and retract acceleration (R), mm/sec^2
M205 X8.00 Y8.00 Z0.40 E5.00 ; sets the jerk limits, mm/sec
M205 S0 T0 ; sets the minimum extruding and travel feed rate, mm/sec
;TYPE:Custom
G90 ; use absolute coordinates
M83 ; extruder relative mode
M104 S150 ; set temporary nozzle temp to prevent oozing during homing
M140 S60 ; set final bed temp
G4 S30 ; allow partial nozzle warmup
G28 ; home all axis and restore leveling
G1 Z50 F240
G1 X2.0 Y10 F3000
M104 S230 ; set final nozzle temp
M190 S60 ; wait for bed temp to stabilize
M109 S230 ; wait for nozzle temp to stabilize
G1 Z0.28 F240
G92 E0
G1 X2.0 Y140 E10 F1500 ; prime the nozzle
G1 X2.3 Y140 F5000
G92 E0
G1 X2.3 Y10 E10 F1200 ; prime the nozzle
G92 E0
G21 ; set units to millimeters
G90 ; use absolute coordinates
M83 ; use relative distances for extrusion
; Filament gcode
M107
;LAYER_CHANGE
;Z:0.2
;HEIGHT:0.2
;BEFORE_LAYER_CHANGE
G92 E0
;0.2


G1 E-1.5 F900
G1 Z.2 F9000
;AFTER_LAYER_CHANGE
;0.2
G1 X94.047 Y93.18
G1 E1.5 F1800
M204 S500
;TYPE:Skirt/Brim
;WIDTH:0.42
G1 F1200
G1 X95.726 Y91.736 E.06944
G1 X97.2 Y90.673 E.05698
G1 X99.209 Y89.483 E.07321
G1 X101.329 Y88.501 E.07326
G1 X103.536 Y87.737 E.07323
G1 X105.809 Y87.2 E.07323
G1 X108.124 Y86.894 E.07322
G1 X110.459 Y86.822 E.07325
G1 X112.651 Y86.97 E.06889
G1 X114.955 Y87.354 E.07324
G1 X117.209 Y87.967 E.07324
G1 X119.389 Y88.804 E.07322
G1 X121.474 Y89.857 E.07324
G1 X123.442 Y91.114 E.07322
G1 X125.275 Y92.562 E.07324
G1 X126.952 Y94.188 E.07324
G1 X128.382 Y95.879 E.06944
G1 X129.433 Y97.361 E.05697
G1 X130.606 Y99.381 E.07324
G1 X131.57 Y101.508 E.07322
G1 X132.277 Y103.588 E.06888
G1 X132.809 Y105.862 E.07322
G1 X133.109 Y108.179 E.07325
G1 X133.175 Y110.513 E.07321
G1 X133.006 Y112.843 E.07325
G1 X132.603 Y115.143 E.07321
G1 X131.97 Y117.392 E.07326
G1 X131.131 Y119.528 E.07195
G1 X130.359 Y121.083 E.05443
G1 X129.14 Y123.076 E.07325
G1 X127.727 Y124.936 E.07324
G1 X126.134 Y126.644 E.07323
G1 X124.377 Y128.183 E.07323
G1 X122.474 Y129.537 E.07323
G1 X120.445 Y130.693 E.07322
G1 X118.309 Y131.639 E.07325
G1 X116.223 Y132.328 E.06888
G1 X113.944 Y132.841 E.07324
G1 X111.626 Y133.122 E.07321
G1 X109.291 Y133.169 E.07323
G1 X106.963 Y132.98 E.07323
G1 X104.666 Y132.557 E.07323
G1 X103.03 Y132.107 E.0532
G1 X100.841 Y131.293 E.07323
G1 X98.745 Y130.263 E.07322
G1 X96.762 Y129.028 E.07325
G1 X94.915 Y127.599 E.07322
G1 X93.22 Y125.992 E.07323
G1 X91.781 Y124.332 E.06888
G1 X90.432 Y122.426 E.07322
G1 X89.28 Y120.393 E.07327
G1 X88.34 Y118.256 E.0732
G1 X87.619 Y116.034 E.07325
G1 X87.125 Y113.751 E.07324
G1 X86.863 Y111.43 E.07324
G1 X86.837 Y109.095 E.07322
G1 X87.045 Y106.768 E.07325
G1 X87.46 Y104.593 E.06943
G1 X87.951 Y102.843 E.05699
G1 X88.783 Y100.661 E.07322
G1 X89.762 Y98.694 E.06889
G1 X91.003 Y96.715 E.07324
G1 X92.436 Y94.871 E.07322
G1 X94.006 Y93.224 E.07134
G1 X94.279 Y93.484 F9000
G1 F1200
G1 X96.055 Y91.955 E.07348
G1 X97.942 Y90.644 E.07204
G1 X99.951 Y89.529 E.07204
G1 X101.949 Y88.665 E.06825
G1 X103.636 Y88.101 E.05577
G1 X105.872 Y87.572 E.07204
G1 X108.15 Y87.27 E.07205
G1 X110.446 Y87.199 E.07202
G1 X112.613 Y87.345 E.0681
G1 X114.879 Y87.723 E.07203
G1 X117.096 Y88.327 E.07205
G1 X119.241 Y89.151 E.07205
G1 X121.292 Y90.187 E.07205
G1 X123.228 Y91.424 E.07203
G1 X125.03 Y92.849 E.07203
G1 X126.68 Y94.449 E.07206
G1 X128.085 Y96.111 E.06824
G1 X129.114 Y97.562 E.05577
G1 X130.268 Y99.549 E.07205
G1 X131.217 Y101.641 E.07203
G1 X131.95 Y103.819 E.07205
G1 X132.461 Y106.059 E.07204
G1 X132.743 Y108.339 E.07203
G1 X132.795 Y110.636 E.07204
G1 X132.631 Y112.802 E.06811
G1 X132.234 Y115.065 E.07204
G1 X131.611 Y117.276 E.07202
G1 X130.769 Y119.414 E.07205
G1 X129.716 Y121.456 E.07204
G1 X128.463 Y123.382 E.07204
G1 X127.023 Y125.172 E.07203
G1 X125.409 Y126.808 E.07206
G1 X123.64 Y128.274 E.07204
G1 X122.276 Y129.216 E.05197
G1 X120.279 Y130.354 E.07207
G1 X118.179 Y131.285 E.07202
G1 X116.117 Y131.967 E.0681
G1 X113.875 Y132.471 E.07205
G1 X111.594 Y132.747 E.07204
G1 X109.297 Y132.792 E.07203
G1 X107.007 Y132.605 E.07204
G1 X104.747 Y132.189 E.07205
G1 X103.149 Y131.749 E.05197
G1 X100.995 Y130.949 E.07204
G1 X98.932 Y129.936 E.07206
G1 X96.982 Y128.721 E.07204
G1 X95.164 Y127.316 E.07204
G1 X93.497 Y125.736 E.07201
G1 X92.075 Y124.094 E.06811
G1 X90.747 Y122.219 E.07204
G1 X89.615 Y120.219 E.07206
G1 X88.69 Y118.116 E.07203
G1 X87.981 Y115.931 E.07203
G1 X87.496 Y113.685 E.07204
G1 X87.239 Y111.402 E.07203
G1 X87.214 Y109.104 E.07206
G1 X87.42 Y106.816 E.07203
G1 X87.827 Y104.678 E.06824
G1 X88.308 Y102.965 E.05579
G1 X89.126 Y100.818 E.07204
G1 X90.094 Y98.874 E.06809
G1 X91.315 Y96.927 E.07206
G1 X92.725 Y95.113 E.07204
G1 X94.237 Y93.527 E.0687
G1 X94.512 Y93.792 F9000
G1 F1200
G1 X94.656 Y93.642 E.00652
G1 X96.29 Y92.251 E.06728
G1 X98.146 Y90.961 E.07087
G1 X100.122 Y89.865 E.07085
G1 X102.198 Y88.973 E.07085
G1 X104.353 Y88.295 E.07083
G1 X106.447 Y87.857 E.06708
G1 X108.175 Y87.646 E.05458
G1 X110.433 Y87.576 E.07083
G1 X112.688 Y87.734 E.07088
G1 X114.914 Y88.117 E.07082
G1 X117.091 Y88.723 E.07085
G1 X119.196 Y89.544 E.07084
G1 X121.11 Y90.517 E.06732
G1 X123.014 Y91.734 E.07085
G1 X124.786 Y93.136 E.07085
G1 X126.407 Y94.71 E.07084
G1 X127.788 Y96.343 E.06706
G1 X128.795 Y97.763 E.05458
G1 X129.931 Y99.717 E.07087
G1 X130.864 Y101.775 E.07085
G1 X131.555 Y103.807 E.0673
G1 X132.069 Y106.007 E.07084
G1 X132.358 Y108.248 E.07085
G1 X132.421 Y110.507 E.07086
G1 X132.256 Y112.761 E.07086
G1 X131.865 Y114.986 E.07083
G1 X131.252 Y117.161 E.07085
G1 X130.472 Y119.153 E.06708
G1 X129.701 Y120.714 E.05459
G1 X128.523 Y122.642 E.07084
G1 X127.157 Y124.442 E.07085
G1 X125.616 Y126.095 E.07086
G1 X124.006 Y127.514 E.06729
G1 X122.172 Y128.834 E.07085
G1 X120.215 Y129.964 E.07085
G1 X118.154 Y130.89 E.07084
G1 X116.011 Y131.605 E.07083
G1 X113.806 Y132.1 E.07086
G1 X111.563 Y132.371 E.07084
G1 X109.303 Y132.415 E.07087
G1 X107.051 Y132.231 E.07085
G1 X104.829 Y131.821 E.07085
G1 X103.267 Y131.391 E.0508
G1 X101.148 Y130.605 E.07086
G1 X99.12 Y129.609 E.07084
G1 X97.202 Y128.415 E.07084
G1 X95.413 Y127.034 E.07086
G1 X93.773 Y125.479 E.07086
G1 X92.298 Y123.768 E.07083
G1 X91.002 Y121.917 E.07085
G1 X89.899 Y119.944 E.07087
G1 X89 Y117.871 E.07085
G1 X88.344 Y115.828 E.06728
G1 X87.867 Y113.619 E.07086
G1 X87.615 Y111.373 E.07086
G1 X87.591 Y109.114 E.07083
G1 X87.794 Y106.863 E.07086
G1 X88.222 Y104.644 E.07086
G1 X88.871 Y102.48 E.07084
G1 X89.735 Y100.392 E.07085
G1 X90.805 Y98.402 E.07084
G1 X91.998 Y96.627 E.06706
G1 X93.088 Y95.27 E.05457
G1 X94.47 Y93.835 E.06247
;WIPE_START
G1 F7200
G1 X94.656 Y93.642 E-.03183
G1 X96.29 Y92.251 E-.25482
G1 X98.146 Y90.961 E-.26841
G1 X100.122 Y89.865 E-.26833
G1 X102.198 Y88.973 E-.26832
G1 X104.353 Y88.295 E-.26827
G1 X105.507 Y88.054 E-.14002
;WIPE_END
G1 X116.965 Y103.793 F9000
G1 E1.5 F1800
;TYPE:Perimeter
;WIDTH:0.419999
G1 F1200
G1 X116.529 Y103.328 E.01999
G1 X115.396 Y102.379 E.04634
G1 X114.533 Y101.836 E.03197
G1 X113.823 Y101.481 E.02489
G1 X113.319 Y101.28 E.01701
G1 X112.655 Y101.047 E.02206
G1 X111.913 Y100.861 E.02398
G1 X112.05 Y100.786 E.0049
G1 X112.726 Y100.288 E.02633
G1 X113.183 Y99.784 E.02133
G1 X113.493 Y99.332 E.01718
G1 X113.814 Y98.652 E.02358
G1 X113.959 Y98.112 E.01753
G1 X114.04 Y97.519 E.01877
G1 X114.005 Y96.75 E.02414
G1 X113.918 Y96.307 E.01416
G1 X113.711 Y95.682 E.02064
G1 X113.381 Y95.083 E.02144
G1 X112.832 Y94.414 E.02713
G1 X112.368 Y94.019 E.01911
G1 X111.827 Y93.699 E.01971
G1 X111.3 Y93.471 E.018
;WIDTH:0.460956
G1 X111.181 Y93.417 E.00454
;WIDTH:0.501913
G1 X111.062 Y93.362 E.005
;WIDTH:0.54287
G1 X110.943 Y93.308 E.00543
;WIDTH:0.583826
G1 X110.824 Y93.254 E.00588
G1 X110.926 Y93.238 E.00464
;WIDTH:0.542338
G1 X111.093 Y93.227 E.00695
;WIDTH:0.501559
G1 X111.259 Y93.216 E.00634
;WIDTH:0.460779
G1 X111.426 Y93.205 E.00582
;WIDTH:0.419999
G1 X111.966 Y93.26 E.01702
G1 X112.799 Y93.381 E.02639
G1 X113.646 Y93.544 E.02704
G1 X114.765 Y93.832 E.03623
G1 X115.272 Y93.99 E.01665
G1 X116.368 Y94.394 E.03662
G1 X116.873 Y94.609 E.01721
G1 X117.37 Y94.841 E.0172
G1 X118.401 Y95.388 E.03659
G1 X118.858 Y95.66 E.01667
G1 X119.829 Y96.307 E.03658
G1 X120.255 Y96.624 E.01665
G1 X121.157 Y97.366 E.03662
G1 X121.549 Y97.724 E.01665
G1 X122.521 Y98.727 E.04379
G1 X123.118 Y99.417 E.02861
G1 X123.443 Y99.833 E.01655
;WIDTH:0.430201
G1 X123.779 Y100.319 E.01903
;WIDTH:0.472106
G1 X123.805 Y100.394 E.00283
;WIDTH:0.514011
G1 X123.832 Y100.468 E.00309
;WIDTH:0.555916
G1 X123.858 Y100.542 E.00335
;WIDTH:0.597821
G1 X123.885 Y100.616 E.00363
;WIDTH:0.639726
G1 X123.911 Y100.69 E.00389
G1 X123.843 Y100.656 E.00377
;WIDTH:0.597821
G1 X123.775 Y100.622 E.00351
;WIDTH:0.555916
G1 X123.707 Y100.587 E.00326
;WIDTH:0.514011
G1 X123.639 Y100.553 E.00298
;WIDTH:0.472106
G1 X123.571 Y100.519 E.00271
;WIDTH:0.430201
G1 X123.112 Y100.201 E.01798
;WIDTH:0.419999
G1 X122.668 Y99.965 E.01577
G1 X121.898 Y99.708 E.02545
G1 X121.455 Y99.633 E.01409
G1 X120.828 Y99.604 E.01968
G1 X120.151 Y99.697 E.02143
G1 X119.439 Y99.913 E.02333
G1 X118.886 Y100.202 E.01956
G1 X118.514 Y100.46 E.01419
G1 X118.054 Y100.871 E.01934
G1 X117.742 Y101.265 E.01576
G1 X117.386 Y101.834 E.02104
G1 X117.104 Y102.555 E.02427
G1 X116.989 Y103.138 E.01863
G1 X116.967 Y103.733 E.01867
;WIPE_START
G1 F7200
G1 X116.529 Y103.328 E-.07084
G1 X115.396 Y102.379 E-.1755
G1 X114.533 Y101.836 E-.12108
G1 X113.823 Y101.481 E-.09426
G1 X113.319 Y101.28 E-.06443
G1 X112.655 Y101.047 E-.08356
G1 X111.913 Y100.861 E-.09084
G1 X112.05 Y100.786 E-.01855
G1 X112.726 Y100.288 E-.09971
G1 X113.183 Y99.784 E-.08079
G1 X113.493 Y99.332 E-.06509
G1 X113.814 Y98.652 E-.0893
G1 X113.959 Y98.112 E-.0664
G1 X114.04 Y97.519 E-.07107
G1 X114.005 Y96.75 E-.09141
G1 X113.918 Y96.307 E-.05361
G1 X113.711 Y95.682 E-.07818
G1 X113.381 Y95.083 E-.08121
G1 X113.359 Y95.056 E-.00417
;WIPE_END
G1 X124.856 Y102.215 F9000
G1 E1.5 F1800
;WIDTH:0.562626
G1 F1200
G1 X124.974 Y102.39 E.00912
;WIDTH:0.515084
G1 X125.092 Y102.566 E.00832
;WIDTH:0.467542
G1 X125.211 Y102.741 E.00747
;WIDTH:0.419999
G1 X125.664 Y103.779 E.03551
G1 X126.052 Y104.861 E.03604
G1 X126.352 Y105.916 E.03439
G1 X126.602 Y107.113 E.03834
G1 X126.756 Y108.193 E.03421
G1 X126.839 Y109.338 E.03599
G1 X126.848 Y110.441 E.03458
G1 X126.826 Y110.972 E.01666
G1 X126.718 Y112.134 E.03659
G1 X126.643 Y112.66 E.01666
G1 X126.418 Y113.806 E.03662
G1 X126.29 Y114.321 E.01664
G1 X125.952 Y115.438 E.03659
G1 X125.773 Y115.938 E.01665
G1 X125.204 Y117.254 E.04495
;WIDTH:0.464278
G1 X125.138 Y117.338 E.00374
;WIDTH:0.508556
G1 X125.071 Y117.421 E.00413
;WIDTH:0.552834
G1 X125.005 Y117.505 E.00453
;WIDTH:0.597112
G1 X124.939 Y117.589 E.00492
G1 X124.958 Y117.397 E.00889
;WIDTH:0.552834
G1 X124.977 Y117.205 E.00818
;WIDTH:0.508556
G1 X124.997 Y117.013 E.00747
;WIDTH:0.464278
G1 X125.016 Y116.822 E.00672
;WIDTH:0.419999
G1 X125.039 Y116.215 E.01905
G1 X124.934 Y115.415 E.0253
G1 X124.786 Y114.937 E.01569
G1 X124.6 Y114.514 E.01449
G1 X124.112 Y113.771 E.02787
G1 X123.567 Y113.223 E.02423
G1 X123.078 Y112.883 E.01867
G1 X122.446 Y112.569 E.02213
G1 X121.898 Y112.408 E.01791
G1 X121.455 Y112.333 E.01409
G1 X120.699 Y112.312 E.02371
G1 X120.151 Y112.397 E.01739
G1 X119.498 Y112.589 E.02134
G1 X118.886 Y112.902 E.02155
G1 X118.998 Y112.494 E.01327
G1 X119.277 Y111.036 E.04654
G1 X119.319 Y110.429 E.01908
G1 X119.329 Y109.702 E.0228
G1 X119.198 Y108.383 E.04156
G1 X119.064 Y107.794 E.01894
G1 X118.862 Y107.079 E.0233
G1 X119.219 Y107.284 E.01291
G1 X119.89 Y107.536 E.02247
G1 X120.33 Y107.635 E.01414
G1 X121.158 Y107.691 E.02602
G1 X121.667 Y107.635 E.01606
G1 X122.164 Y107.517 E.01602
G1 X122.689 Y107.327 E.01751
G1 X123.231 Y107.024 E.01947
G1 X123.663 Y106.688 E.01716
G1 X124.245 Y106.057 E.02692
G1 X124.692 Y105.291 E.02781
G1 X124.853 Y104.866 E.01425
G1 X125.016 Y104.122 E.02388
G1 X125.039 Y103.515 E.01905
G1 X124.962 Y102.827 E.02171
;WIDTH:0.467542
G1 X124.926 Y102.623 E.00731
;WIDTH:0.515084
G1 X124.891 Y102.419 E.00813
;WIDTH:0.562626
G1 X124.866 Y102.274 E.00636
;WIPE_START
G1 F7200
G1 X124.974 Y102.39 E-.01882
G1 X125.092 Y102.566 E-.02516
G1 X125.211 Y102.741 E-.02513
G1 X125.664 Y103.779 E-.13449
G1 X126.052 Y104.861 E-.1365
G1 X126.352 Y105.916 E-.13025
G1 X126.602 Y107.113 E-.14521
G1 X126.756 Y108.193 E-.12955
G1 X126.839 Y109.338 E-.13633
G1 X126.848 Y110.441 E-.13099
G1 X126.826 Y110.972 E-.06311
G1 X126.718 Y112.134 E-.13858
G1 X126.643 Y112.66 E-.06309
G1 X126.418 Y113.806 E-.13869
G1 X126.29 Y114.321 E-.06302
G1 X126.239 Y114.491 E-.02108
;WIPE_END
G1 X112.195 Y119.315 F9000
G1 E1.5 F1800
;WIDTH:0.419999
G1 F1200
G1 X111.885 Y119.129 E.01134
G1 X112.844 Y118.889 E.031
G1 X113.442 Y118.669 E.01998
G1 X114.055 Y118.409 E.02088
G1 X114.754 Y118.034 E.02487
G1 X115.214 Y117.734 E.01722
G1 X115.824 Y117.293 E.0236
G1 X116.935 Y116.246 E.04787
G1 X116.959 Y116.593 E.01091
G1 X117.028 Y117.11 E.01635
G1 X117.166 Y117.622 E.01663
G1 X117.424 Y118.243 E.02108
G1 X117.752 Y118.757 E.01912
G1 X118.23 Y119.301 E.02271
G1 X118.708 Y119.682 E.01917
G1 X119.171 Y119.958 E.0169
G1 X119.89 Y120.236 E.02417
G1 X120.652 Y120.371 E.02426
G1 X121.23 Y120.384 E.01813
G1 X121.943 Y120.285 E.02257
G1 X122.501 Y120.102 E.01841
G1 X122.907 Y119.914 E.01403
G1 X123.335 Y119.647 E.01582
;WIDTH:0.460234
G1 X123.456 Y119.572 E.00494
;WIDTH:0.500469
G1 X123.578 Y119.497 E.00545
;WIDTH:0.540703
G1 X123.699 Y119.422 E.00589
;WIDTH:0.580938
G1 X123.82 Y119.347 E.00637
;WIDTH:0.621172
G1 X123.941 Y119.273 E.00682
G1 X123.907 Y119.367 E.00481
;WIDTH:0.571782
G1 X123.873 Y119.462 E.00444
;WIDTH:0.522391
G1 X123.838 Y119.556 E.004
;WIDTH:0.473
G1 X123.723 Y119.749 E.00803
;WIDTH:0.4465
G1 X123.608 Y119.942 E.00754
;WIDTH:0.419999
G1 X123.288 Y120.366 E.01666
G1 X122.538 Y121.261 E.03661
G1 X122.177 Y121.651 E.01666
G1 X121.341 Y122.466 E.03661
G1 X120.943 Y122.817 E.01664
G1 X119.978 Y123.578 E.03853
G1 X119.043 Y124.22 E.03556
G1 X118.59 Y124.499 E.01668
G1 X118.054 Y124.8 E.01927
G1 X117.029 Y125.316 E.03598
G1 X116.321 Y125.614 E.02409
G1 X115.507 Y125.927 E.02734
G1 X114.674 Y126.182 E.02731
G1 X113.599 Y126.455 E.03478
G1 X112.619 Y126.646 E.03131
G1 X111.959 Y126.73 E.02086
;WIDTH:0.448284
G1 X111.557 Y126.757 E.01358
;WIDTH:0.476568
G1 X111.155 Y126.783 E.01453
;WIDTH:0.514639
G1 X111.064 Y126.768 E.00362
;WIDTH:0.55271
G1 X110.972 Y126.752 E.00396
;WIDTH:0.59078
G1 X110.881 Y126.737 E.0042
G1 X111.037 Y126.666 E.00781
;WIDTH:0.548085
G1 X111.192 Y126.594 E.00718
;WIDTH:0.50539
G1 X111.347 Y126.523 E.00656
;WIDTH:0.462695
G1 X111.502 Y126.452 E.00595
;WIDTH:0.419999
G1 X112.094 Y126.161 E.02068
G1 X112.665 Y125.738 E.02228
G1 X113.247 Y125.107 E.02692
G1 X113.651 Y124.424 E.02488
G1 X113.854 Y123.916 E.01715
G1 X114.021 Y123.133 E.0251
G1 X114.036 Y122.522 E.01916
G1 X113.956 Y121.843 E.02144
G1 X113.809 Y121.355 E.01598
G1 X113.601 Y120.864 E.01672
G1 X113.295 Y120.347 E.01884
G1 X112.832 Y119.814 E.02214
G1 X112.368 Y119.419 E.01911
G1 X112.246 Y119.346 E.00446
;WIPE_START
G1 F7200
G1 X111.885 Y119.129 E-.05002
G1 X112.844 Y118.889 E-.11739
G1 X113.442 Y118.669 E-.07567
G1 X114.055 Y118.409 E-.07907
G1 X114.754 Y118.034 E-.0942
G1 X115.214 Y117.734 E-.06522
G1 X115.824 Y117.293 E-.08938
G1 X116.935 Y116.246 E-.18128
G1 X116.959 Y116.593 E-.0413
G1 X117.028 Y117.11 E-.06194
G1 X117.166 Y117.622 E-.06297
G1 X117.424 Y118.243 E-.07985
G1 X117.752 Y118.757 E-.07241
G1 X118.23 Y119.301 E-.086
G1 X118.708 Y119.682 E-.07259
G1 X119.171 Y119.958 E-.06401
G1 X119.89 Y120.236 E-.09154
G1 X120.652 Y120.371 E-.0919
G1 X120.848 Y120.375 E-.02326
