; generated by PrusaSlicer 2.6.1+win64 on 2023-09-29 at 05:02:15 UTC

; 

; external perimeters extrusion width = 0.42mm
; perimeters extrusion width = 0.44mm
; infill extrusion width = 0.44mm
; solid infill extrusion width = 0.44mm
; top infill extrusion width = 0.40mm
; support material extrusion width = 0.36mm
; first layer extrusion width = 0.42mm

; external perimeters extrusion width = 0.42mm
; perimeters extrusion width = 0.44mm
; infill extrusion width = 0.44mm
; solid infill extrusion width = 0.44mm
; top infill extrusion width = 0.40mm
; support material extrusion width = 0.36mm
; first layer extrusion width = 0.42mm

M201 X500 Y500 Z100 E5000 ; sets maximum accelerations, mm/sec^2
M203 X500 Y500 Z10 E60 ; sets maximum feedrates, mm / sec
M204 S500 T1000 ; sets acceleration (S) and retract acceleration (R), mm/sec^2
M205 X8.00 Y8.00 Z0.40 E5.00 ; sets the jerk limits, mm/sec
M205 S0 T0 ; sets the minimum extruding and travel feed rate, mm/sec
;TYPE:Custom
G90 ; use absolute coordinates
M83 ; extruder relative mode
M104 S150 ; set temporary nozzle temp to prevent oozing during homing
M140 S60 ; set final bed temp
G4 S30 ; allow partial nozzle warmup
G28 ; home all axis and restore leveling
G1 Z50 F240
G1 X2.0 Y10 F3000
M104 S230 ; set final nozzle temp
M190 S60 ; wait for bed temp to stabilize
M109 S230 ; wait for nozzle temp to stabilize
G1 Z0.28 F240
G92 E0
G1 X2.0 Y140 E10 F1500 ; prime the nozzle
G1 X2.3 Y140 F5000
G92 E0
G1 X2.3 Y10 E10 F1200 ; prime the nozzle
G92 E0
G21 ; set units to millimeters
G90 ; use absolute coordinates
M83 ; use relative distances for extrusion
; Filament gcode
M107
;LAYER_CHANGE
;Z:0.2
;HEIGHT:0.2
;BEFORE_LAYER_CHANGE
G92 E0
;0.2


G1 E-1.5 F900
G1 Z.2 F9000
;AFTER_LAYER_CHANGE
;0.2
G1 X91.284 Y73.325
G1 E1.5 F1800
M204 S500
;TYPE:Skirt/Brim
;WIDTH:0.42
G1 F1200
G1 X92.848 Y71.591 E.07322
G1 X94.579 Y70.022 E.07325
G1 X96.459 Y68.636 E.07323
G1 X98.468 Y67.446 E.07321
G1 X100.588 Y66.464 E.07326
G1 X102.795 Y65.701 E.07322
G1 X105.068 Y65.163 E.07324
G1 X107.383 Y64.857 E.07322
G1 X109.718 Y64.786 E.07325
G1 X111.273 Y64.869 E.04883
G1 X113.411 Y65.157 E.06764
G1 X114.972 Y65.496 E.05008
G1 X116.468 Y65.931 E.04885
G1 X117.931 Y66.464 E.04882
G1 X119.479 Y67.156 E.05317
G1 X120.853 Y67.889 E.04883
G1 X122.702 Y69.077 E.06891
G1 X123.939 Y70.022 E.04881
G1 X125.212 Y71.144 E.0532
G1 X126.305 Y72.253 E.04882
G1 X127.716 Y73.937 E.06889
G1 X128.616 Y75.208 E.04883
G1 X129.497 Y76.658 E.0532
G1 X130.21 Y78.042 E.04881
G1 X131.055 Y80.07 E.06889
G1 X131.574 Y81.685 E.05319
G1 X131.945 Y83.198 E.04884
G1 X132.214 Y84.732 E.04883
G1 X132.416 Y86.919 E.06886
G1 X133.92 Y131.771 E1.40709
G1 X133.877 Y133.466 E.05316
G1 X133.616 Y135.787 E.07323
G1 X133.122 Y138.07 E.07324
G1 X132.401 Y140.292 E.07325
G1 X131.46 Y142.429 E.07321
G1 X130.309 Y144.462 E.07325
G1 X128.959 Y146.368 E.07323
G1 X127.425 Y148.128 E.0732
G1 X125.826 Y149.636 E.06891
G1 X123.978 Y151.064 E.07323
G1 X121.996 Y152.3 E.07324
G1 X119.9 Y153.329 E.07321
G1 X117.711 Y154.143 E.07323
G1 X115.45 Y154.732 E.07326
G1 X113.143 Y155.091 E.0732
G1 X110.81 Y155.216 E.07325
G1 X109.254 Y155.168 E.04881
G1 X107.566 Y154.997 E.0532
G1 X105.406 Y154.593 E.0689
G1 X103.904 Y154.184 E.04881
G1 X102.432 Y153.675 E.04883
G1 X100.872 Y153.01 E.05317
G1 X99.485 Y152.3 E.04886
G1 X97.618 Y151.143 E.06887
G1 X96.364 Y150.219 E.04884
G1 X95.073 Y149.119 E.05318
G1 X93.553 Y147.588 E.06764
G1 X92.522 Y146.368 E.05008
G1 X91.523 Y144.997 E.05319
G1 X90.382 Y143.12 E.06887
G1 X89.684 Y141.728 E.04882
G1 X89.031 Y140.162 E.0532
G1 X88.393 Y138.187 E.06508
G1 X88.005 Y136.554 E.05263
G1 X87.753 Y135.017 E.04883
G1 X87.596 Y133.328 E.05319
G1 X86.084 Y88.477 E1.40707
G1 X86.15 Y86.142 E.07324
G1 X86.45 Y83.826 E.07322
G1 X86.982 Y81.552 E.07322
G1 X87.74 Y79.342 E.07326
G1 X88.717 Y77.221 E.07322
G1 X89.902 Y75.208 E.07324
G1 X91.248 Y73.373 E.07135
G1 X91.552 Y73.596 F9000
G1 F1200
G1 X93.111 Y71.861 E.07313
G1 X94.814 Y70.317 E.07207
G1 X96.662 Y68.953 E.07202
G1 X98.639 Y67.782 E.07205
G1 X100.724 Y66.816 E.07205
G1 X102.895 Y66.064 E.07204
G1 X105.131 Y65.535 E.07204
G1 X107.409 Y65.234 E.07205
G1 X109.705 Y65.163 E.07202
G1 X111.832 Y65.304 E.06684
G1 X113.387 Y65.535 E.04929
G1 X114.884 Y65.863 E.04805
G1 X116.475 Y66.33 E.05199
G1 X117.911 Y66.863 E.04803
G1 X119.879 Y67.782 E.0681
G1 X121.21 Y68.541 E.04804
G1 X122.59 Y69.461 E.052
G1 X124.289 Y70.813 E.06808
G1 X125.407 Y71.861 E.04805
G1 X126.452 Y72.981 E.04803
G1 X127.495 Y74.27 E.05199
G1 X128.715 Y76.067 E.0681
G1 X129.469 Y77.4 E.04802
G1 X130.133 Y78.781 E.04805
G1 X130.745 Y80.322 E.05199
G1 X131.209 Y81.782 E.04803
G1 X131.575 Y83.27 E.04805
G1 X131.84 Y84.779 E.04804
G1 X132.04 Y86.942 E.06811
G1 X133.543 Y131.78 E1.40665
G1 X133.501 Y133.438 E.052
G1 X133.245 Y135.721 E.07203
G1 X132.76 Y137.967 E.07204
G1 X132.051 Y140.153 E.07206
G1 X131.126 Y142.256 E.07203
G1 X129.994 Y144.255 E.07203
G1 X128.666 Y146.131 E.07207
G1 X127.157 Y147.863 E.07203
G1 X125.577 Y149.353 E.06809
G1 X123.759 Y150.758 E.07204
G1 X121.809 Y151.973 E.07204
G1 X119.746 Y152.985 E.07205
G1 X117.592 Y153.785 E.07204
G1 X115.369 Y154.364 E.07203
G1 X113.098 Y154.716 E.07206
G1 X110.804 Y154.838 E.07203
G1 X109.273 Y154.791 E.04803
G1 X107.623 Y154.624 E.052
G1 X105.488 Y154.225 E.0681
G1 X104.01 Y153.823 E.04803
G1 X102.562 Y153.321 E.04805
G1 X101.037 Y152.671 E.05198
G1 X99.673 Y151.973 E.04804
G1 X97.827 Y150.829 E.06809
G1 X96.495 Y149.841 E.052
G1 X94.895 Y148.433 E.06683
G1 X93.802 Y147.302 E.04932
G1 X92.738 Y146.031 E.05197
G1 X91.839 Y144.791 E.04802
G1 X90.711 Y142.935 E.0681
G1 X90.024 Y141.565 E.04805
G1 X89.386 Y140.035 E.05198
G1 X88.755 Y138.083 E.06432
G1 X88.374 Y136.475 E.05181
G1 X88.126 Y134.963 E.04804
G1 X87.973 Y133.312 E.05199
G1 X86.461 Y88.474 E1.40666
G1 X86.525 Y86.177 E.07205
G1 X86.82 Y83.898 E.07205
G1 X87.343 Y81.661 E.07203
G1 X88.089 Y79.487 E.07207
G1 X89.049 Y77.4 E.07203
G1 X90.214 Y75.42 E.07203
G1 X91.516 Y73.644 E.06905
G1 X91.82 Y73.867 F9000
G1 F1200
G1 X93.375 Y72.13 E.0731
G1 X95.048 Y70.612 E.07083
G1 X96.866 Y69.27 E.07085
G1 X98.81 Y68.118 E.07085
G1 X100.86 Y67.168 E.07084
G1 X102.995 Y66.428 E.07085
G1 X105.194 Y65.907 E.07086
G1 X107.434 Y65.61 E.07085
G1 X109.693 Y65.54 E.07086
G1 X111.794 Y65.68 E.06602
G1 X113.324 Y65.907 E.0485
G1 X114.796 Y66.23 E.04725
G1 X116.351 Y66.686 E.05081
G1 X117.763 Y67.21 E.04722
G1 X119.708 Y68.118 E.0673
G1 X121.017 Y68.865 E.04726
G1 X122.365 Y69.763 E.05079
G1 X124.045 Y71.1 E.06732
G1 X125.144 Y72.131 E.04725
G1 X126.171 Y73.233 E.04723
G1 X127.19 Y74.492 E.05078
G1 X128.396 Y76.268 E.06731
G1 X129.138 Y77.58 E.04726
G1 X129.79 Y78.938 E.04723
G1 X130.388 Y80.443 E.05078
G1 X130.845 Y81.879 E.04725
G1 X131.328 Y83.971 E.06732
G1 X131.546 Y85.462 E.04725
G1 X131.664 Y86.964 E.04724
G1 X133.166 Y131.79 E1.40628
G1 X133.077 Y134.048 E.07085
G1 X132.768 Y136.245 E.06956
G1 X132.397 Y137.864 E.05208
G1 X131.7 Y140.013 E.07084
G1 X130.791 Y142.082 E.07086
G1 X129.678 Y144.049 E.07086
G1 X128.373 Y145.893 E.07083
G1 X126.889 Y147.597 E.07085
G1 X125.328 Y149.07 E.06729
G1 X123.539 Y150.451 E.07086
G1 X121.621 Y151.646 E.07085
G1 X119.592 Y152.641 E.07086
G1 X117.474 Y153.427 E.07083
G1 X115.287 Y153.996 E.07085
G1 X113.054 Y154.342 E.07085
G1 X110.798 Y154.461 E.07083
G1 X109.178 Y154.407 E.05082
G1 X107.68 Y154.252 E.04722
G1 X105.57 Y153.857 E.06731
G1 X104.116 Y153.461 E.04725
G1 X102.692 Y152.968 E.04725
G1 X101.202 Y152.332 E.0508
G1 X99.861 Y151.646 E.04723
G1 X98.036 Y150.516 E.0673
G1 X96.824 Y149.621 E.04724
G1 X95.59 Y148.57 E.05082
G1 X94.106 Y147.076 E.06603
G1 X93.109 Y145.893 E.04851
G1 X92.154 Y144.584 E.0508
G1 X91.04 Y142.75 E.06728
G1 X90.365 Y141.403 E.04724
G1 X89.741 Y139.907 E.05082
G1 X89.118 Y137.98 E.0635
G1 X88.742 Y136.396 E.05105
G1 X88.499 Y134.909 E.04724
G1 X88.35 Y133.296 E.05079
G1 X86.838 Y88.47 E1.40629
G1 X86.901 Y86.212 E.07083
G1 X87.19 Y83.971 E.07085
G1 X87.704 Y81.77 E.07087
G1 X88.437 Y79.633 E.07084
G1 X89.381 Y77.579 E.07088
G1 X90.526 Y75.632 E.07082
G1 X91.784 Y73.915 E.06674
;WIPE_START
G1 F7200
G1 X93.375 Y72.13 E-.28395
G1 X95.048 Y70.612 E-.26826
G1 X96.866 Y69.27 E-.26834
G1 X98.81 Y68.118 E-.26834
G1 X100.86 Y67.168 E-.26831
G1 X101.996 Y66.774 E-.1428
;WIPE_END
G1 X117.706 Y125.829 F9000
G1 E1.5 F1800
;TYPE:Perimeter
;WIDTH:0.419999
G1 F1200
G1 X117.27 Y125.364 E.01999
G1 X116.137 Y124.415 E.04634
G1 X115.274 Y123.872 E.03197
G1 X114.564 Y123.517 E.02489
G1 X114.06 Y123.316 E.01701
G1 X113.396 Y123.084 E.02205
G1 X112.654 Y122.897 E.02399
G1 X112.791 Y122.822 E.0049
G1 X113.467 Y122.325 E.02631
G1 X113.924 Y121.82 E.02135
G1 X114.234 Y121.368 E.01718
G1 X114.555 Y120.688 E.02358
G1 X114.7 Y120.148 E.01753
G1 X114.781 Y119.555 E.01877
G1 X114.746 Y118.786 E.02414
G1 X114.659 Y118.343 E.01416
G1 X114.452 Y117.718 E.02064
G1 X114.122 Y117.119 E.02144
G1 X113.573 Y116.45 E.02713
G1 X113.109 Y116.055 E.01911
G1 X112.568 Y115.735 E.01971
G1 X112.041 Y115.507 E.018
;WIDTH:0.460956
G1 X111.922 Y115.453 E.00454
;WIDTH:0.501913
G1 X111.803 Y115.399 E.00499
;WIDTH:0.54287
G1 X111.684 Y115.344 E.00545
;WIDTH:0.583826
G1 X111.565 Y115.29 E.00588
G1 X111.667 Y115.275 E.00464
;WIDTH:0.542338
G1 X111.834 Y115.264 E.00695
;WIDTH:0.501559
G1 X112 Y115.252 E.00635
;WIDTH:0.460779
G1 X112.167 Y115.241 E.00582
;WIDTH:0.419999
G1 X112.707 Y115.296 E.01702
G1 X113.54 Y115.418 E.0264
G1 X114.387 Y115.58 E.02704
G1 X115.506 Y115.869 E.03624
G1 X116.013 Y116.027 E.01665
G1 X117.109 Y116.43 E.03661
G1 X117.613 Y116.645 E.01718
G1 X118.111 Y116.877 E.01723
G1 X119.142 Y117.424 E.03659
G1 X119.598 Y117.696 E.01665
G1 X120.57 Y118.344 E.03663
G1 X120.996 Y118.66 E.01663
G1 X121.898 Y119.402 E.03662
G1 X122.29 Y119.76 E.01665
G1 X123.262 Y120.763 E.04379
G1 X123.859 Y121.453 E.02861
G1 X124.184 Y121.869 E.01655
;WIDTH:0.430201
G1 X124.52 Y122.356 E.01905
;WIDTH:0.472106
G1 X124.546 Y122.43 E.0028
;WIDTH:0.514011
G1 X124.573 Y122.504 E.00309
;WIDTH:0.555916
G1 X124.599 Y122.578 E.00335
;WIDTH:0.597821
G1 X124.626 Y122.652 E.00363
;WIDTH:0.639726
G1 X124.652 Y122.726 E.00389
G1 X124.584 Y122.692 E.00377
;WIDTH:0.597821
G1 X124.516 Y122.658 E.00351
;WIDTH:0.555916
G1 X124.448 Y122.624 E.00324
;WIDTH:0.514011
G1 X124.38 Y122.59 E.00298
;WIDTH:0.472106
G1 X124.311 Y122.555 E.00276
;WIDTH:0.430201
G1 X123.852 Y122.237 E.01798
;WIDTH:0.419999
G1 X123.409 Y122.001 E.01574
G1 X122.639 Y121.744 E.02545
G1 X122.196 Y121.669 E.01409
G1 X121.569 Y121.64 E.01968
G1 X120.892 Y121.733 E.02143
G1 X120.18 Y121.95 E.02334
G1 X119.626 Y122.239 E.01959
G1 X119.255 Y122.496 E.01415
G1 X118.795 Y122.908 E.01936
G1 X118.483 Y123.301 E.01573
G1 X118.127 Y123.871 E.02107
G1 X117.844 Y124.591 E.02426
G1 X117.73 Y125.175 E.01866
G1 X117.708 Y125.769 E.01864
;WIPE_START
G1 F7200
G1 X117.27 Y125.364 E-.07084
G1 X116.137 Y124.415 E-.1755
G1 X115.274 Y123.872 E-.12108
G1 X114.564 Y123.517 E-.09426
G1 X114.06 Y123.316 E-.06443
G1 X113.396 Y123.084 E-.08352
G1 X112.654 Y122.897 E-.09087
G1 X112.791 Y122.822 E-.01855
G1 X113.467 Y122.325 E-.09964
G1 X113.924 Y121.82 E-.08088
G1 X114.234 Y121.368 E-.06509
G1 X114.555 Y120.688 E-.0893
G1 X114.7 Y120.148 E-.0664
G1 X114.781 Y119.555 E-.07107
G1 X114.746 Y118.786 E-.09141
G1 X114.659 Y118.343 E-.05361
G1 X114.452 Y117.718 E-.07818
G1 X114.122 Y117.119 E-.08121
G1 X114.1 Y117.092 E-.00416
;WIPE_END
G1 X125.596 Y124.251 F9000
G1 E1.5 F1800
;WIDTH:0.562626
G1 F1200
G1 X125.715 Y124.427 E.00918
;WIDTH:0.515084
G1 X125.833 Y124.602 E.00829
;WIDTH:0.467542
G1 X125.952 Y124.777 E.00747
;WIDTH:0.419999
G1 X126.405 Y125.815 E.03551
G1 X126.793 Y126.897 E.03604
G1 X127.093 Y127.953 E.03442
G1 X127.343 Y129.149 E.03831
G1 X127.497 Y130.229 E.03421
G1 X127.58 Y131.374 E.03599
G1 X127.589 Y132.477 E.03458
G1 X127.567 Y133.008 E.01666
G1 X127.459 Y134.17 E.03659
G1 X127.384 Y134.696 E.01666
G1 X127.159 Y135.842 E.03662
G1 X127.031 Y136.357 E.01664
G1 X126.693 Y137.475 E.03662
G1 X126.514 Y137.975 E.01665
G1 X125.945 Y139.29 E.04493
;WIDTH:0.464278
G1 X125.879 Y139.374 E.00374
;WIDTH:0.508556
G1 X125.812 Y139.457 E.00413
;WIDTH:0.552834
G1 X125.746 Y139.541 E.00453
;WIDTH:0.597112
G1 X125.68 Y139.625 E.00492
G1 X125.699 Y139.433 E.00889
;WIDTH:0.552834
G1 X125.718 Y139.241 E.00818
;WIDTH:0.508556
G1 X125.738 Y139.05 E.00744
;WIDTH:0.464278
G1 X125.757 Y138.858 E.00676
;WIDTH:0.419999
G1 X125.78 Y138.251 E.01905
G1 X125.675 Y137.451 E.0253
G1 X125.527 Y136.973 E.01569
G1 X125.341 Y136.55 E.01449
G1 X124.853 Y135.807 E.02787
G1 X124.308 Y135.259 E.02423
G1 X123.819 Y134.919 E.01867
G1 X123.187 Y134.605 E.02213
G1 X122.639 Y134.444 E.01791
G1 X122.196 Y134.369 E.01409
G1 X121.44 Y134.349 E.02371
G1 X120.892 Y134.433 E.01738
G1 X120.239 Y134.626 E.02135
G1 X119.626 Y134.939 E.02158
G1 X119.739 Y134.53 E.0133
G1 X120.018 Y133.072 E.04654
G1 X120.059 Y132.466 E.01904
G1 X120.07 Y131.738 E.02283
G1 X119.939 Y130.419 E.04156
G1 X119.805 Y129.83 E.01894
G1 X119.603 Y129.115 E.0233
G1 X119.96 Y129.32 E.01291
G1 X120.631 Y129.572 E.02247
G1 X121.071 Y129.671 E.01414
G1 X121.899 Y129.727 E.02602
G1 X122.408 Y129.671 E.01606
G1 X122.905 Y129.553 E.01602
G1 X123.43 Y129.363 E.01751
G1 X123.972 Y129.06 E.01947
G1 X124.404 Y128.724 E.01716
G1 X124.986 Y128.093 E.02692
G1 X125.432 Y127.328 E.02776
G1 X125.594 Y126.903 E.01426
G1 X125.757 Y126.158 E.02391
G1 X125.78 Y125.551 E.01905
G1 X125.703 Y124.863 E.02171
;WIDTH:0.467542
G1 X125.667 Y124.659 E.00731
;WIDTH:0.515084
G1 X125.632 Y124.455 E.00813
;WIDTH:0.562626
G1 X125.607 Y124.311 E.00632
;WIPE_START
G1 F7200
G1 X125.715 Y124.427 E-.01882
G1 X125.833 Y124.602 E-.02506
G1 X125.952 Y124.777 E-.02513
G1 X126.405 Y125.815 E-.13449
G1 X126.793 Y126.897 E-.1365
G1 X127.093 Y127.953 E-.13036
G1 X127.343 Y129.149 E-.14509
G1 X127.497 Y130.229 E-.12955
G1 X127.58 Y131.374 E-.13633
G1 X127.589 Y132.477 E-.13099
G1 X127.567 Y133.008 E-.06311
G1 X127.459 Y134.17 E-.13858
G1 X127.384 Y134.696 E-.06309
G1 X127.159 Y135.842 E-.13869
G1 X127.031 Y136.357 E-.06302
G1 X126.979 Y136.528 E-.02119
;WIPE_END
G1 X112.935 Y141.351 F9000
G1 E1.5 F1800
;WIDTH:0.419999
G1 F1200
G1 X112.626 Y141.165 E.01131
G1 X113.585 Y140.925 E.031
G1 X114.183 Y140.705 E.01998
G1 X114.796 Y140.445 E.02088
G1 X115.495 Y140.071 E.02486
G1 X115.955 Y139.77 E.01724
G1 X116.565 Y139.329 E.0236
G1 X117.676 Y138.282 E.04787
G1 X117.7 Y138.629 E.01091
G1 X117.769 Y139.146 E.01635
G1 X117.907 Y139.658 E.01663
G1 X118.165 Y140.279 E.02108
G1 X118.493 Y140.793 E.01912
G1 X118.971 Y141.337 E.02271
G1 X119.449 Y141.718 E.01917
G1 X119.912 Y141.994 E.0169
G1 X120.631 Y142.272 E.02417
G1 X121.393 Y142.407 E.02426
G1 X121.971 Y142.42 E.01813
G1 X122.684 Y142.321 E.02257
G1 X123.242 Y142.138 E.01841
G1 X123.648 Y141.95 E.01403
G1 X124.076 Y141.683 E.01582
;WIDTH:0.460234
G1 X124.197 Y141.608 E.00494
;WIDTH:0.500469
G1 X124.319 Y141.533 E.00545
;WIDTH:0.540703
G1 X124.44 Y141.458 E.00589
;WIDTH:0.580938
G1 X124.561 Y141.384 E.00635
;WIDTH:0.621172
G1 X124.682 Y141.309 E.00684
G1 X124.648 Y141.403 E.00481
;WIDTH:0.571782
G1 X124.613 Y141.498 E.00445
;WIDTH:0.522391
G1 X124.579 Y141.592 E.00399
;WIDTH:0.473
G1 X124.464 Y141.785 E.00803
;WIDTH:0.4465
G1 X124.349 Y141.979 E.00757
;WIDTH:0.419999
G1 X124.029 Y142.402 E.01663
G1 X123.279 Y143.297 E.03661
G1 X122.918 Y143.687 E.01666
G1 X122.082 Y144.502 E.03661
G1 X121.684 Y144.853 E.01664
G1 X120.719 Y145.614 E.03853
G1 X119.784 Y146.257 E.03558
G1 X119.331 Y146.535 E.01666
G1 X118.795 Y146.836 E.01927
G1 X117.77 Y147.352 E.03598
G1 X117.061 Y147.65 E.02411
G1 X116.248 Y147.963 E.02731
G1 X115.415 Y148.219 E.02732
G1 X114.34 Y148.491 E.03477
G1 X113.359 Y148.682 E.03134
G1 X112.699 Y148.767 E.02086
;WIDTH:0.448284
G1 X112.297 Y148.793 E.01358
;WIDTH:0.476568
G1 X111.895 Y148.819 E.01453
;WIDTH:0.514639
G1 X111.804 Y148.804 E.00362
;WIDTH:0.55271
G1 X111.713 Y148.789 E.00391
;WIDTH:0.59078
G1 X111.622 Y148.773 E.00421
G1 X111.778 Y148.702 E.00781
;WIDTH:0.548085
G1 X111.933 Y148.63 E.00718
;WIDTH:0.50539
G1 X112.088 Y148.559 E.00656
;WIDTH:0.462695
